build/img/icons/mobile-phone.svg

<svg width="23" height="23" viewBox="0 0 23 23" fill="none" xmlns="http://www.w3.org/2000/svg">
<path d="M16.7356 22.4651C18.7132 22.4651 20.0579 21.9001 21.2783 20.578C21.3574 20.4876 21.4365 20.3859 21.5156 20.2955C22.1823 19.5497 22.51 18.77 22.51 18.0467C22.51 17.1992 22.058 16.4308 21.0523 15.7415L17.6848 13.391C16.6226 12.6565 15.3909 12.6 14.4417 13.5492L13.6055 14.3855C13.3117 14.6793 13.0292 14.7019 12.6902 14.4646C12.0799 14.0578 10.9273 13.0407 10.1363 12.2497C9.33398 11.4474 8.52037 10.5434 8.07966 9.85408C7.84235 9.50377 7.86496 9.23256 8.15876 8.93876L8.99498 8.10254C9.9442 7.15332 9.8877 5.9216 9.14188 4.85938L6.74623 1.43541C6.07952 0.463592 5.2772 0.0115828 4.42969 0.000282558C3.70647 -0.0110177 2.93806 0.316689 2.19224 0.972102C2.10184 1.0512 2.01144 1.1303 1.92104 1.20941C0.576311 2.44113 0 3.76326 0 5.8199C0 9.15346 1.93234 13.0859 5.69531 16.8263C9.43569 20.5441 13.323 22.4651 16.7356 22.4651ZM16.7356 20.578C13.8541 20.6232 10.2719 18.5778 7.13044 15.459C3.96638 12.3401 1.86454 8.62235 1.90974 5.7408C1.93234 4.53167 2.36175 3.46945 3.20926 2.72364C3.29967 2.65584 3.36747 2.59933 3.45787 2.53153C3.77427 2.26033 4.11328 2.11342 4.42969 2.11342C4.75739 2.11342 5.0512 2.24903 5.2772 2.58803L7.39035 5.7634C7.66155 6.1476 7.67285 6.58831 7.27734 6.97252L6.37333 7.86524C5.51451 8.70145 5.59361 9.68457 6.13602 10.453C6.74623 11.3005 7.88756 12.6 8.84807 13.5492C9.8764 14.5663 11.2776 15.8206 12.0912 16.4082C12.8597 16.9506 13.8428 17.0297 14.679 16.1709L15.5717 15.2669C15.9446 14.8714 16.3853 14.8827 16.7808 15.1426L19.8997 17.2218C20.25 17.4478 20.3743 17.7303 20.3743 18.058C20.3743 18.3744 20.2274 18.7135 19.9562 19.0412C19.8884 19.1203 19.8319 19.1881 19.7641 19.2785C19.0183 20.1373 17.9561 20.5667 16.7356 20.578Z" fill="#EEE7DA"/>
</svg>

<svg width="23" height="23" fill="none" xmlns="http://www.w3.org/2000/svg"><path d="M16.736 22.465c1.977 0 3.322-.565 4.542-1.887.08-.09.159-.192.238-.282.666-.746.994-1.526.994-2.25 0-.847-.452-1.615-1.458-2.304l-3.367-2.351c-1.062-.735-2.294-.791-3.243.158l-.837.837c-.293.293-.576.316-.915.079-.61-.407-1.763-1.424-2.554-2.215-.802-.803-1.616-1.707-2.056-2.396-.238-.35-.215-.621.079-.915l.836-.836c.95-.95.893-2.181.147-3.244L6.746 1.435C6.08.464 5.277.012 4.43 0c-.724-.01-1.492.317-2.238.972l-.271.237C.576 2.441 0 3.763 0 5.82c0 3.334 1.932 7.267 5.695 11.007 3.74 3.718 7.628 5.64 11.04 5.64Zm0-1.887c-2.882.045-6.464-2-9.606-5.119-3.164-3.119-5.265-6.837-5.22-9.718.022-1.21.452-2.272 1.3-3.017.09-.068.157-.125.248-.192.316-.272.655-.419.972-.419.327 0 .621.136.847.475L7.39 5.763c.272.385.283.825-.113 1.21l-.904.892c-.858.836-.78 1.82-.237 2.588.61.848 1.752 2.147 2.712 3.096 1.028 1.017 2.43 2.272 3.243 2.86.769.542 1.752.62 2.588-.238l.893-.904c.373-.396.813-.384 1.209-.124l3.119 2.079c.35.226.474.508.474.836 0 .316-.147.655-.418.983a4.37 4.37 0 0 0-.192.238c-.746.858-1.808 1.288-3.028 1.299Z" fill="#EEE7DA"/></svg>
